polaris-icons/icons/newicons/IconsMajor.svg

<svg width="20" height="20" viewBox="0 0 20 20" fill="none" xmlns="http://www.w3.org/2000/svg">
<path fill-rule="evenodd" clip-rule="evenodd" d="M9.11089 15L8.60217 15.8721C8.46685 16.1041 8.46589 16.3907 8.59964 16.6235C8.7334 16.8564 8.98145 17 9.25 17H16.25C16.5185 17 16.7666 16.8564 16.9004 16.6235C17.0341 16.3907 17.0331 16.1041 16.8978 15.8721L16.0151 14.3589C16.6172 13.8544 17 13.0969 17 12.25V6.75C17 5.23122 15.7688 4 14.25 4H8.87266C8.24018 3.09326 7.18937 2.5 6 2.5C4.067 2.5 2.5 4.067 2.5 6C2.5 6.6725 2.68967 7.3007 3.01843 7.83403C3.00637 7.88742 3 7.94297 3 8V12.25C3 13.7688 4.23122 15 5.75 15H9.11089ZM8 6C8 7.10457 7.10457 8 6 8C4.89543 8 4 7.10457 4 6C4 4.89543 4.89543 4 6 4C7.10457 4 8 4.89543 8 6ZM9.5 6C9.5 7.933 7.933 9.5 6 9.5C5.4632 9.5 4.95463 9.37915 4.5 9.16318V12.25C4.5 12.9404 5.05964 13.5 5.75 13.5H9.98589L12.1022 9.8721C12.2366 9.64168 12.4832 9.5 12.75 9.5C13.0168 9.5 13.2634 9.64168 13.3978 9.8721L15.2344 13.0205C15.4008 12.8082 15.5 12.5407 15.5 12.25V6.75C15.5 6.05964 14.9404 5.5 14.25 5.5H9.46456C9.48791 5.6633 9.5 5.83024 9.5 6ZM12.75 11.7385L14.9442 15.5H10.5558L12.75 11.7385Z" fill="black"/>
</svg>

<svg viewBox="0 0 20 20" fill="none" xmlns="http://www.w3.org/2000/svg"><path fill-rule="evenodd" clip-rule="evenodd" d="m9.11 15-.508.872a.75.75 0 0 0 .648 1.128h7a.75.75 0 0 0 .648-1.128l-.883-1.513a2.744 2.744 0 0 0 .985-2.109v-5.5a2.75 2.75 0 0 0-2.75-2.75h-5.377a3.5 3.5 0 0 0-5.854 3.834.753.753 0 0 0-.019.166v4.25a2.75 2.75 0 0 0 2.75 2.75h3.36Zm-1.11-9a2 2 0 1 1-4 0 2 2 0 0 1 4 0Zm1.5 0a3.5 3.5 0 0 1-5 3.163v3.087c0 .69.56 1.25 1.25 1.25h4.236l2.116-3.628a.75.75 0 0 1 1.296 0l1.836 3.149c.167-.213.266-.48.266-.771v-5.5c0-.69-.56-1.25-1.25-1.25h-4.785c.023.163.035.33.035.5Zm3.25 5.739 2.194 3.761h-4.388l2.194-3.761Z" fill="#000"/></svg>
